X: 1561
T: Pencere Açıldı Bilal Oğlan
C: (Anonim)
O: Turkey
F: http://compmusic.upf.edu/node/140
N: hicaz--turku--aksak--pencere_acildi--
N: makam= hicaz
N: form= turku
N: usul= aksak = 9/8
M: 9/8
L: 1/16
K: C _7/8B ^f ^c 
Q: 1/4=264
%%MIDI tuningsystem comma53
c2d2 e2=f2 e2d2 c4 B2 | c2 A2B2 G2A2 B2c2 d2e2  | \
w:  ARANAĞME  |   | 
c2d2 e2=f2 e2d2 c4 B2 | 
w:   | 
c2 A2B2 G2A8z2  | c2d2 e2=f2 e2d2 c4 B2 | \
w:   |  ARANAĞME  | 
c2 A2B2 G2A2 B2c2 d2e2  | 
w:   | 
c2d2 e2=f2 e2d2 c4 B2 | c2 A2B2 G2A8z2  | \
w:   |   | 
d4 e2e2 =f4 e4 d2 | c3Bc2 d2c2 B2A4z2  | 
w:  Pen ce re  a çıl  |  dı  *  Bi lal_ oğ *  lan   | 
d4 e4 =f4 e2d2 c2 | g6 =f2e2 d2c2 B2A2  | \
w:  piş tov  pat la  |  dı    | 
d4 e2e2 =f4 e4 d2 | c3Bc2 d2c2 B2A4z2  | 
w:  Pen ce re  a çıl  |  dı  *  Bi lal_ oğ *  lan   | 
d4 e4 =f4 e2d2 c2 | d6 A2B2 c2d6  | z4 F2G2 A4 A4 z2 | \
w:  piş tov  pat la  |  dı   SAZ  |  Va rın  ba kın   | 
B3AB2 d2c2 B2A4z2  | 
w:  kan *  lı  da  Bi *  lal   | 
e2d2 d2c2 c2B2 B4 A2 | B3AB2 c2B2 A2B4z2  | \
w:  yi ne  ki mi  hak *  la  |  dı    | 
z4 F2G2 A4 A4 z2 | 
w:  Va rın  ba kın   | 
B3AB2 d2c2 B2A4z2  | e2d2 d2c2 c2B2 B4 A2 | \
w:  kan *  lı  da  Bi *  lal   |  yi ne  ki mi  hak *  la  | 
A12z6  | d4 e4 =f4 e4 d2 | 
w:  dı    |  Al lı  ye me  | 
c3Bc2 d2c2 B2A4z2  | d4 e4 =f4 e2d2 c2 | \
w:  ni  *  Bi lal_ oğ *  lan   |  pul lu  ye me  | 
g6 =f2e2 d2c2 B2A2  | 
w:  ni    | 
d4 e4 =f4 e4 d2 | c3Bc2 d2c2 B2A4z2  | \
w:  Al lı  ye me  |  ni  *  Bi lal_ oğ *  lan   | 
d4 e4 =f4 e2d2 c2 | d6 A2B2 c2d4z2  | 
w:  pul lu  ye me  |  ni   SAZ  | 
z4 F2G2 A4 A4 z2 | B3AB2 d2c2 B2A4z2  | \
w:  Va rın  ba kın   |  kan *  lı  da  Bi *  lal   | 
e2d2 d2c2 c2B2 B4 A2 | 
w:  yi ne  ki mi  hak *  la  | 
B3AB2 c2B2 A2B4z2  | z4 F2G2 A4 A4 z2 | \
w:  dı    |  Va rın  ba kın   | 
B3AB2 d2c2 B2A4z2  | 
w:  kan *  lı  da  Bi *  lal   | 
e2d2 d2c2 c2B2 B4 A2 | A12z6  | |


